X:14
T: Yizhuan xiangfeng ji duo nan
N: C1514
O: China, Guangdong, Lechang
S: II, 400]
R: Shange, Guoshanbang diao]
M: 2/4
L: 1/16
K: A
A2A2B2ce | f2e2cBA2
A2B6cecB | A6B2 | cec2B2A6 | B8 | A4z4
A2A2B2ce | f2e2cBA2
A2B6cecB | A6B2 | cec2B2A6 | B8 | A4z4

